X: 4474
T: Bonnie Mulligan
R: reel
M: 4/4
K: Gmajor
|:"G"g3d BGBd|gdBd cdef|g3d BcdB|"D"A3B cdef|
"G"g3d BGBd|gdBd cdef|g2dc BGBd|1 "D"BdcA BG G2:|2 "D"BdcA AGGB||
|:"C"cdec "G"BcdB|"D"A3B cBAG|"C"cdec "G"BcdB|1 "D"ADD2 FGAB:|2 A3B cBAB||
|:"G"GBdB "C"cdec|"G"BcdB "D"A3B|"G"GBdB "C"cdef|1 "G"g2dc BGG2:|2 g2dc Bcdf||

